X: 37280
T: Skip Out Of School
R: jig
M: 6/8
K: Dmajor
|:~d3 Add|Bdd cde|d2 A B2 d|efe cBA|
~d3 Add|Bdd cde|dfa b2 a|Ace f2 e:|
|:dfa ~a3|dfa gfe|f2 B d2 f|efe cBA|
dfa ~a3|dfa b2 a|gec Ace|fge f2 e:|

